X: 137013
T: The BLACKTHORN STICK
Q: "Irish Jig."
R: Jig.
%R: jig
B: James Kerr "Merry Melodies" v.1 p.37 s.0 #13
Z: 2016 John Chambers <jc:trillian.mit.edu>
M: 6/8
L: 1/8
K: A
ue |\
aga faf | ecA BAF | EAA GBB | Acc uB2 ue |\
aga baf | ecA BAF | EAA GBB | cAA A2 :|
|: ue |\
fee aee | fee aee | fee agf | edc uB2ue |\
aga baf | ecA BAF | EAA GBB | cAA A2 H:|

%%sep 1 1 500
%%sep 1 1 500

